www/assets/icons/volunteer_activism.svg

<svg width="24" height="24" viewBox="0 0 24 24" xmlns="http://www.w3.org/2000/svg" fill='currentColor'><path d="M5.495 11H1.495V22H5.495V11Z"/><path d="M16.495 3.25C17.145 2.49 18.155 2 19.195 2C21.045 2 22.495 3.45 22.495 5.3C22.495 7.57 19.585 10.2 16.495 13C13.405 10.19 10.495 7.56 10.495 5.3C10.495 3.45 11.945 2 13.795 2C14.835 2 15.845 2.49 16.495 3.25Z"/><path d="M20.495 17H13.495L11.405 16.27L11.735 15.33L13.495 16H16.315C16.965 16 17.495 15.47 17.495 14.82C17.495 14.33 17.185 13.89 16.725 13.71L9.465 11H7.495V20.02L14.495 22L22.505 19C22.495 17.9 21.605 17 20.495 17Z"/></svg>

<svg xmlns="http://www.w3.org/2000/svg" width="24" height="24" viewBox="0 0 24 24" fill='currentColor'><path d="M5.495 11h-4v11h4zm11-7.75c.65-.76 1.66-1.25 2.7-1.25 1.85 0 3.3 1.45 3.3 3.3 0 2.27-2.91 4.9-6 7.7-3.09-2.81-6-5.44-6-7.7 0-1.85 1.45-3.3 3.3-3.3 1.04 0 2.05.49 2.7 1.25m4 13.75h-7l-2.09-.73.33-.94 1.76.67h2.82c.65 0 1.18-.53 1.18-1.18 0-.49-.31-.93-.77-1.11L9.465 11h-1.97v9.02l7 1.98 8.01-3c-.01-1.1-.9-2-2.01-2"/></svg>
